packages/foundations/assets/icons/functional/images/notification/check_circle_filled.svg

<svg xmlns="http://www.w3.org/2000/svg" width="32" height="32" fill="none"><path fill="#1A1C1F" fill-rule="evenodd" d="M14.72 2.06c-1.337.16-2.192.345-3.214.694a14 14 0 0 0-9.108 9.958 13.97 13.97 0 0 0 2.111 11.263c1.513 2.162 3.665 3.918 6.004 4.898 1.813.759 3.549 1.111 5.487 1.111 2.014 0 3.907-.403 5.746-1.224 3.133-1.398 5.81-4.13 7.127-7.273.76-1.814 1.111-3.55 1.11-5.487-.001-2.779-.782-5.401-2.282-7.665a14.06 14.06 0 0 0-9.621-6.178c-.537-.084-2.898-.153-3.36-.097m8.692 8.62c.539.275.743.862.465 1.331-.187.314-9.725 9.833-9.93 9.911-.274.103-.65.072-.897-.075-.34-.203-4.814-4.71-4.914-4.952-.188-.452-.039-.939.376-1.23.174-.123.277-.154.51-.156.161-.002.351.027.422.063s1.023.957 2.116 2.047l1.987 1.981 4.44-4.438c2.873-2.872 4.506-4.466 4.626-4.518a.9.9 0 0 1 .799.036"/></svg>

<svg width="32" height="32" viewBox="0 0 32 32" fill="none" xmlns="http://www.w3.org/2000/svg"><path d="M14.720 2.060 C 13.383 2.220,12.528 2.405,11.506 2.754 C 6.953 4.310,3.537 8.044,2.398 12.712 C 1.455 16.573,2.232 20.722,4.509 23.975 C 6.022 26.137,8.174 27.893,10.513 28.873 C 12.326 29.632,14.062 29.984,16.000 29.984 C 18.014 29.984,19.907 29.581,21.746 28.760 C 24.879 27.362,27.556 24.630,28.873 21.487 C 29.633 19.673,29.984 17.937,29.983 16.000 C 29.982 13.221,29.201 10.599,27.701 8.335 C 25.479 4.983,22.049 2.781,18.080 2.157 C 17.543 2.073,15.182 2.004,14.720 2.060 M23.412 10.680 C 23.951 10.955,24.155 11.542,23.877 12.011 C 23.690 12.325,14.152 21.844,13.947 21.922 C 13.673 22.025,13.297 21.994,13.050 21.847 C 12.710 21.644,8.236 17.137,8.136 16.895 C 7.948 16.443,8.097 15.956,8.512 15.665 C 8.686 15.542,8.789 15.511,9.022 15.509 C 9.183 15.507,9.373 15.536,9.444 15.572 C 9.515 15.608,10.467 16.529,11.560 17.619 L 13.547 19.600 17.987 15.162 C 20.860 12.290,22.493 10.696,22.613 10.644 C 22.880 10.530,23.142 10.542,23.412 10.680 " fill="#1A1C1F" stroke="none" fill-rule="evenodd"></path></svg>
